symbols/web/table_restaurant/materialsymbolsoutlined/table_restaurant_wght200grad200fill1_48px.svg

<svg xmlns="http://www.w3.org/2000/svg" height="48" width="48"><path d="m9.25 38.35 2.4-17.65H7.3q-.85 0-1.35-.675-.5-.675-.25-1.425l2.35-8.15q.1-.55.575-.875Q9.1 9.25 9.65 9.25H38.4q.5 0 .975.35t.625.9l2.35 8.1q.2.75-.3 1.425t-1.3.675h-4.4l2.35 17.65h-2.15l-1.4-10.2H12.8l-1.4 10.2ZM34.2 20.7H13.85l-.7 5.25h21.8Z"/></svg>

<svg xmlns="http://www.w3.org/2000/svg" height="48" width="48"><path d="M9.25 38.35 11.65 20.7H7.3Q6.45 20.7 5.95 20.025Q5.45 19.35 5.7 18.6L8.05 10.45Q8.15 9.9 8.625 9.575Q9.1 9.25 9.65 9.25H38.4Q38.9 9.25 39.375 9.6Q39.85 9.95 40 10.5L42.35 18.6Q42.55 19.35 42.05 20.025Q41.55 20.7 40.75 20.7H36.35L38.7 38.35H36.55L35.15 28.15H12.8L11.4 38.35ZM34.2 20.7H13.85L13.15 25.95H34.95Z"/></svg>
